src/dsmComponents/Icons/minimise-12px.svg

<svg width="12" height="12" xmlns="http://www.w3.org/2000/svg" xmlns:xlink="http://www.w3.org/1999/xlink"><defs><path d="M5.55 6.45v5.25h-1.5V9l-3 3L0 10.95l3-3H.3v-1.5h5.25zM10.95 0L12 1.05l-3 3h2.7v1.5H6.45V.3h1.5V3l3-3z" id="minimise-12px_svg__a"/></defs><use fill="#737373" xlink:href="#minimise-12px_svg__a" fill-rule="evenodd"/></svg>

<?xml version="1.0" encoding="UTF-8"?>
<svg width="12px" height="12px" viewBox="0 0 12 12" version="1.1" xmlns="http://www.w3.org/2000/svg" xmlns:xlink="http://www.w3.org/1999/xlink">
    <!-- Generator: Sketch 59.1 (86144) - https://sketch.com -->
    <title>minimise-12px</title>
    <desc>Created with Sketch.</desc>
    <defs>
        <path d="M5.55,6.45 L5.55,11.7 L4.05,11.7 L4.05,9 L1.05,12 L0,10.95 L3,7.95 L0.3,7.95 L0.3,6.45 L5.55,6.45 Z M10.95,0 L12,1.05 L9,4.05 L11.7,4.05 L11.7,5.55 L6.45,5.55 L6.45,0.3 L7.95,0.3 L7.95,3 L10.95,0 Z" id="path-1"></path>
    </defs>
    <g id="Final" stroke="none" stroke-width="1" fill="none" fill-rule="evenodd">
        <g id="All-Nucleo-Icons" transform="translate(-174.000000, -5018.000000)">
            <g id="Solo/Nucleo/12px/minimise" transform="translate(168.000000, 5012.000000)">
                <g id="minimise-double-74" transform="translate(6.000000, 6.000000)">
                    <g id="Colour/Default-Colour">
                        <mask id="mask-2" fill="white">
                            <use xlink:href="#path-1"></use>
                        </mask>
                        <g id="Mask" fill-rule="nonzero"></g>
                        <g id="colour/neutral/chia" mask="url(#mask-2)" fill="#737373">
                            <g transform="translate(-18.000000, -18.000000)" id="Colour">
                                <rect x="0" y="0" width="48" height="48"></rect>
                            </g>
                        </g>
                    </g>
                </g>
            </g>
        </g>
    </g>
</svg>
